assets/Euro banknote/Flat/euro_banknote_flat.svg

<svg width="32" height="32" viewBox="0 0 32 32" fill="none" xmlns="http://www.w3.org/2000/svg">
<path d="M2 10C2 8.89543 2.89543 8 4 8H15H17H19H28C29.1046 8 30 8.89543 30 10V24C30 25.1046 29.1046 26 28 26H4C2.89543 26 2 25.1046 2 24V10Z" fill="#83CBFF"/>
<path d="M3 10.5C3 9.67157 3.67157 9 4.5 9H27.5C28.3284 9 29 9.67157 29 10.5V23.5C29 24.3284 28.3284 25 27.5 25H4.5C3.67157 25 3 24.3284 3 23.5V10.5ZM4.5 10C4.22386 10 4 10.2239 4 10.5V23.5C4 23.7761 4.22386 24 4.5 24H27.5C27.7761 24 28 23.7761 28 23.5V10.5C28 10.2239 27.7761 10 27.5 10H4.5ZM2 28C2 29.1046 2.89543 30 4 30H15L17 29L19 30H28C29.1046 30 30 29.1046 30 28V24C30 25.1046 29.1046 26 28 26H4C2.89543 26 2 25.1046 2 24V28ZM26 17C26 19.4853 23.9853 21.5 21.5 21.5C19.0147 21.5 17 19.4853 17 17C17 14.5147 19.0147 12.5 21.5 12.5C23.9853 12.5 26 14.5147 26 17Z" fill="#0074BA"/>
<path d="M19 8H15V27H19V8Z" fill="#FFF478"/>
<path d="M19 26H15V30H19V26Z" fill="#F3AD61"/>
<path d="M11.22 13.5C10.0921 13.5 9.14427 14.3856 9.01501 15.5H11.5C11.7761 15.5 12 15.7239 12 16C12 16.2761 11.7761 16.5 11.5 16.5H9V17.5101H11.5C11.7761 17.5101 12 17.734 12 18.0101C12 18.2863 11.7761 18.5101 11.5 18.5101H9.00653C9.09358 19.6374 10.0401 20.5 11.22 20.5H12.5C12.7761 20.5 13 20.7239 13 21C13 21.2761 12.7761 21.5 12.5 21.5H11.22C9.51476 21.5 8.09339 20.2167 8.00442 18.5101H6.5C6.22386 18.5101 6 18.2863 6 18.0101C6 17.734 6.22386 17.5101 6.5 17.5101H8V16.5H6.5C6.22386 16.5 6 16.2761 6 16C6 15.7239 6.22386 15.5 6.5 15.5H8.0104C8.14279 13.8493 9.52276 12.5 11.22 12.5H12.5C12.7761 12.5 13 12.7239 13 13C13 13.2761 12.7761 13.5 12.5 13.5H11.22Z" fill="white"/>
</svg>

<svg xmlns="http://www.w3.org/2000/svg" width="32" height="32" fill="none"><path fill="#83CBFF" d="M2 10a2 2 0 0 1 2-2h24a2 2 0 0 1 2 2v14a2 2 0 0 1-2 2H4a2 2 0 0 1-2-2V10Z"/><path fill="#0074BA" d="M3 10.5A1.5 1.5 0 0 1 4.5 9h23a1.5 1.5 0 0 1 1.5 1.5v13a1.5 1.5 0 0 1-1.5 1.5h-23A1.5 1.5 0 0 1 3 23.5v-13Zm1.5-.5a.5.5 0 0 0-.5.5v13a.5.5 0 0 0 .5.5h23a.5.5 0 0 0 .5-.5v-13a.5.5 0 0 0-.5-.5h-23ZM2 28a2 2 0 0 0 2 2h11l2-1 2 1h9a2 2 0 0 0 2-2v-4a2 2 0 0 1-2 2H4a2 2 0 0 1-2-2v4Zm24-11a4.5 4.5 0 1 1-9 0 4.5 4.5 0 0 1 9 0Z"/><path fill="#FFF478" d="M19 8h-4v19h4V8Z"/><path fill="#F3AD61" d="M19 26h-4v4h4v-4Z"/><path fill="#fff" d="M11.22 13.5c-1.128 0-2.076.886-2.205 2H11.5a.5.5 0 0 1 0 1H9v1.01h2.5a.5.5 0 0 1 0 1H9.007c.087 1.127 1.033 1.99 2.213 1.99h1.28a.5.5 0 0 1 0 1h-1.28c-1.705 0-3.127-1.283-3.216-2.99H6.5a.5.5 0 1 1 0-1H8V16.5H6.5a.5.5 0 0 1 0-1h1.51c.133-1.65 1.513-3 3.21-3h1.28a.5.5 0 0 1 0 1h-1.28Z"/></svg>
